public/static/img/support/sendImg.svg

<svg width="20" height="20" viewBox="0 0 20 20" fill="none" xmlns="http://www.w3.org/2000/svg">
<path d="M16.3638 13.5358L14.9496 12.1216L16.3638 10.7074C18.3164 8.75481 18.3164 5.58897 16.3638 3.63635C14.4112 1.68372 11.2453 1.68372 9.2927 3.63635L7.87849 5.05056L6.46428 3.63635L7.87849 2.22213C10.6122 -0.511543 15.0443 -0.511543 17.778 2.22213C20.5117 4.9558 20.5117 9.38791 17.778 12.1216L16.3638 13.5358ZM13.5353 16.3643L12.1211 17.7785C9.3875 20.5121 4.95531 20.5121 2.22164 17.7785C-0.512031 15.0448 -0.512031 10.6126 2.22164 7.87899L3.63585 6.46477L5.05007 7.87899L3.63585 9.29321C1.68323 11.2458 1.68323 14.4116 3.63585 16.3643C5.58847 18.3169 8.7543 18.3169 10.7069 16.3643L12.1211 14.95L13.5353 16.3643ZM12.8282 5.75767L14.2425 7.17188L7.17139 14.2429L5.75717 12.8287L12.8282 5.75767Z" fill="#00A609"/>
</svg>

<svg width="20" height="20" fill="none" xmlns="http://www.w3.org/2000/svg"><path d="m16.364 13.536-1.414-1.414 1.414-1.415a5 5 0 0 0-7.071-7.07L7.878 5.05 6.464 3.636l1.414-1.414a7 7 0 0 1 9.9 9.9l-1.414 1.414Zm-2.829 2.828-1.414 1.415a7 7 0 0 1-9.9-9.9l1.415-1.414L5.05 7.879 3.636 9.293a5 5 0 0 0 7.07 7.071l1.415-1.414 1.414 1.414Zm-.707-10.606 1.415 1.414-7.072 7.07-1.414-1.413 7.071-7.071Z" fill="#00A609"/></svg>
